dist/img/catalog-brand/r_yandex.svg

<svg width="193" height="41" viewBox="0 0 193 41" fill="none" xmlns="http://www.w3.org/2000/svg">
<path d="M92.4641 27.4101V24.6386C91.4315 25.3529 89.7011 25.9815 88.0824 25.9815C85.6543 25.9815 84.7333 24.8101 84.5938 22.4101H92.6037V20.6101C92.6037 15.61 90.4547 13.7243 87.1335 13.7243C83.0867 13.7243 81.1609 16.8957 81.1609 21.2386C81.1609 26.2387 83.5611 28.6672 87.8033 28.6672C89.9244 28.6672 91.4873 28.0958 92.4641 27.4101ZM113.228 28.6672C114.763 28.6672 115.852 28.3815 116.661 27.7815V25.0101C115.824 25.6101 114.819 25.9815 113.424 25.9815C111.052 25.9815 110.075 24.0958 110.075 21.1243C110.075 18.01 111.275 16.41 113.452 16.41C114.736 16.41 115.991 16.8672 116.661 17.2957V14.41C115.964 14.01 114.736 13.7243 113.089 13.7243C108.847 13.7243 106.642 16.8386 106.642 21.2101C106.642 26.0101 108.791 28.6672 113.228 28.6672ZM62.0432 14.01V19.6958H57.6057V14.01H54.2845V28.3815H57.6057V22.3815H62.0432V28.3815H65.3644V14.01H62.0432ZM80.3516 25.6958H78.8724V14.01H69.1879V15.2386C69.1879 18.7529 68.9647 23.2958 67.7925 25.6958H66.7598V31.6673H69.8298V28.3815H77.2816V31.6673H80.3516V25.6958ZM103.07 28.3815H106.837L101.507 20.6386L106.195 14.01H102.846L98.1576 20.6386V14.01H94.8364V28.3815H98.1576V21.3243L103.07 28.3815ZM87.0777 16.41C88.7243 16.41 89.2267 17.81 89.2267 19.61V19.8958H84.5938C84.6775 17.61 85.4868 16.41 87.0777 16.41ZM75.5512 25.6958H70.8625C71.7835 23.5244 72.0347 19.61 72.0347 17.1243V16.6957H75.5512V25.6958Z" fill="black"/>
<path d="M133.996 28.3817H137.931L131.009 17.9245L137.484 8.52441H134.135L127.856 17.6673V8.52441H124.479V28.3817H127.856V19.0673L133.996 28.3817Z" fill="black"/>
<path d="M149.227 18.5815C149.227 15.0958 147.497 13.7815 143.98 13.7815C141.775 13.7815 140.045 14.4958 139.04 15.0958V17.9244C139.933 17.2387 141.887 16.4958 143.589 16.4958C145.18 16.4958 145.906 17.0672 145.906 18.6101V19.4101H145.375C140.296 19.4101 138.035 21.1244 138.035 24.0387C138.035 26.953 139.766 28.5816 142.333 28.5816C144.287 28.5816 145.124 27.9244 145.766 27.2387H145.906C145.934 27.6102 146.045 28.0959 146.157 28.3816H149.394C149.283 27.2101 149.227 26.0387 149.227 24.8673V18.5815ZM145.906 24.953C145.487 25.5816 144.706 26.0959 143.533 26.0959C142.138 26.0959 141.44 25.2387 141.44 23.953C141.44 22.2673 142.585 21.6673 145.431 21.6673H145.906V24.953Z" fill="black"/>
<path d="M154.966 14.01H151.896V32.5244H155.218V26.6958C156.055 27.9815 157.283 28.6672 158.706 28.6672C161.944 28.6672 164.176 26.0101 164.176 21.1815C164.176 16.3815 161.999 13.7243 158.874 13.7243C157.311 13.7243 156.027 14.4672 155.134 15.8672L154.966 14.01ZM157.869 25.9815C156.111 25.9815 155.218 24.5244 155.218 21.2101C155.218 17.8672 156.166 16.41 158.036 16.41C159.85 16.41 160.744 17.8672 160.744 21.1815C160.744 24.5244 159.795 25.9815 157.869 25.9815Z" fill="black"/>
<path d="M175.851 16.6957V14.0099H164.715V16.6957H168.622V28.3815H171.944V16.6957H175.851Z" fill="black"/>
<path d="M177.817 14.0099V28.3815H182.869C186.134 28.3815 188.45 26.6672 188.45 23.2957C188.45 20.0957 186.385 18.41 182.924 18.41H181.138V14.0099H177.817ZM189.678 14.0099V28.3815H193V14.0099H189.678ZM182.673 25.6957H181.138V21.0957H182.757C184.18 21.0957 185.018 21.7528 185.018 23.41C185.018 25.0672 184.097 25.6957 182.673 25.6957Z" fill="black"/>
<path d="M51.4936 28.3817H48.1166V11.2101H46.6095C43.8465 11.2101 42.3952 12.6387 42.3952 14.753C42.3952 17.153 43.4 18.2673 45.4652 19.6959L47.1677 20.8673L42.2557 28.3817H38.5996L43.0092 21.6674C40.4695 19.8102 39.0462 18.0102 39.0462 14.953C39.0462 11.1244 41.6417 8.52441 46.5816 8.52441H51.4936V28.3817Z" fill="black"/>
<path d="M12.6441 4.52441C10.1435 4.52569 7.69938 5.24568 5.62046 6.59343C3.54153 7.94119 1.92107 9.85625 0.963757 12.0967C0.00644759 14.3372 -0.244764 16.8026 0.241852 19.1814C0.728468 21.5603 1.93108 23.7459 3.69779 25.4622C5.98848 27.6839 11.3793 30.8977 11.6983 34.2738C11.7461 34.7781 12.1242 35.1911 12.6441 35.1911C13.1641 35.1911 13.5435 34.7781 13.5899 34.2738C13.9089 30.8977 19.2956 27.6893 21.5848 25.4691C23.3536 23.7534 24.5582 21.5677 25.0464 19.1882C25.5346 16.8087 25.2844 14.3422 24.3275 12.1005C23.3706 9.85889 21.75 7.94271 19.6704 6.59421C17.5908 5.24571 15.1457 4.52542 12.6441 4.52441ZM12.6441 20.9876C12.0759 20.9876 11.5132 20.8791 10.9883 20.6682C10.4633 20.4573 9.98627 20.1482 9.58447 19.7585C9.18267 19.3688 8.86394 18.9062 8.64649 18.397C8.42904 17.8879 8.31711 17.3422 8.31711 16.7911C8.31711 16.24 8.42904 15.6943 8.64649 15.1851C8.86394 14.676 9.18267 14.2133 9.58447 13.8237C9.98627 13.434 10.4633 13.1249 10.9883 12.914C11.5132 12.7031 12.0759 12.5945 12.6441 12.5945C13.7917 12.5945 14.8923 13.0367 15.7038 13.8237C16.5153 14.6107 16.9711 15.6781 16.9711 16.7911C16.9711 17.9041 16.5153 18.9715 15.7038 19.7585C14.8923 20.5455 13.7917 20.9876 12.6441 20.9876Z" fill="#FF4433"/>
</svg>

<svg width="193" height="41" viewBox="0 0 193 41" fill="none" xmlns="http://www.w3.org/2000/svg"><path d="M92.464 27.41v-2.77c-1.032.714-2.763 1.343-4.382 1.343-2.428 0-3.349-1.172-3.488-3.572h8.01v-1.8c0-5-2.15-6.886-5.47-6.886-4.047 0-5.973 3.172-5.973 7.515 0 5 2.4 7.428 6.642 7.428 2.121 0 3.684-.571 4.661-1.257zm20.764 1.257c1.535 0 2.624-.286 3.433-.886v-2.77c-.837.6-1.842.97-3.237.97-2.372 0-3.349-1.885-3.349-4.857 0-3.114 1.2-4.714 3.377-4.714 1.284 0 2.539.457 3.209.886V14.41c-.697-.4-1.925-.686-3.572-.686-4.242 0-6.447 3.115-6.447 7.486 0 4.8 2.149 7.457 6.586 7.457zM62.043 14.01v5.686h-4.437V14.01h-3.322v14.371h3.322v-6h4.437v6h3.321V14.01h-3.32zm18.309 11.686h-1.48V14.01h-9.684v1.229c0 3.514-.223 8.057-1.395 10.457H66.76v5.971h3.07v-3.286h7.452v3.286h3.07v-5.971zm22.718 2.685h3.767l-5.33-7.742 4.688-6.629h-3.349l-4.688 6.629V14.01h-3.322v14.371h3.322v-7.057l4.912 7.057zM87.078 16.41c1.646 0 2.149 1.4 2.149 3.2v.286h-4.633c.084-2.286.893-3.486 2.484-3.486zM75.55 25.696h-4.689c.922-2.172 1.173-6.086 1.173-8.572v-.428h3.516v9zm58.446 2.686h3.935l-6.922-10.458 6.475-9.4h-3.349l-6.279 9.143V8.524h-3.377v19.858h3.377v-9.315l6.14 9.315zm15.231-9.801c0-3.485-1.73-4.8-5.247-4.8-2.205 0-3.935.715-4.94 1.315v2.828c.893-.685 2.847-1.428 4.549-1.428 1.591 0 2.317.571 2.317 2.114v.8h-.531c-5.079 0-7.34 1.714-7.34 4.629 0 2.914 1.731 4.543 4.298 4.543 1.954 0 2.791-.658 3.433-1.343h.14c.028.371.139.857.251 1.143h3.237a37.236 37.236 0 01-.167-3.515v-6.286zm-3.321 6.372c-.419.629-1.2 1.143-2.373 1.143-1.395 0-2.093-.857-2.093-2.143 0-1.686 1.145-2.286 3.991-2.286h.475v3.286zm9.06-10.943h-3.07v18.514h3.322v-5.828c.837 1.285 2.065 1.971 3.488 1.971 3.238 0 5.47-2.657 5.47-7.486 0-4.8-2.177-7.457-5.302-7.457-1.563 0-2.847.743-3.74 2.143l-.168-1.857zm2.903 11.972c-1.758 0-2.651-1.458-2.651-4.772 0-3.343.948-4.8 2.818-4.8 1.814 0 2.708 1.457 2.708 4.771 0 3.343-.949 4.8-2.875 4.8zm17.982-9.286V14.01h-11.136v2.686h3.907V28.38h3.322V16.697h3.907zm1.966-2.686v14.37h5.052c3.265 0 5.581-1.714 5.581-5.085 0-3.2-2.065-4.886-5.526-4.886h-1.786v-4.4h-3.321zm11.861 0v14.37H193V14.01h-3.322zm-7.005 11.686h-1.535v-4.6h1.619c1.423 0 2.261.657 2.261 2.314s-.921 2.286-2.345 2.286zM51.494 28.382h-3.377V11.21h-1.508c-2.763 0-4.214 1.429-4.214 3.543 0 2.4 1.005 3.514 3.07 4.943l1.703 1.171-4.912 7.515H38.6l4.41-6.715c-2.54-1.857-3.964-3.657-3.964-6.714 0-3.829 2.596-6.429 7.536-6.429h4.912v19.858z" fill="#000"/><path d="M12.644 4.524a12.94 12.94 0 00-7.024 2.07 12.359 12.359 0 00-4.656 5.503 11.926 11.926 0 00-.722 7.084 12.158 12.158 0 003.456 6.281c2.29 2.222 7.681 5.436 8 8.812.048.504.426.917.946.917s.9-.413.946-.917c.319-3.376 5.706-6.585 7.995-8.805a12.16 12.16 0 003.461-6.28c.489-2.38.238-4.847-.718-7.088a12.358 12.358 0 00-4.658-5.507 12.932 12.932 0 00-7.026-2.07zm0 16.464c-.568 0-1.13-.109-1.656-.32a4.338 4.338 0 01-1.404-.91 4.19 4.19 0 01-.938-1.361 4.087 4.087 0 010-3.212 4.19 4.19 0 01.938-1.361c.402-.39.88-.7 1.404-.91a4.443 4.443 0 011.656-.32c1.148 0 2.248.443 3.06 1.23a4.133 4.133 0 011.267 2.967c0 1.113-.456 2.18-1.267 2.968a4.396 4.396 0 01-3.06 1.229z" fill="#F43"/></svg>
